build/assets/images/icons/technologies/c++.svg

<svg xmlns="http://www.w3.org/2000/svg" viewBox="0 0 48 48" width="96" height="96"><path fill="#00549d" fill-rule="evenodd" d="M22.903 3.286a2.247 2.247 0 0 1 2.193 0l16.807 9.434A2.12 2.12 0 0 1 43 14.566v18.867c0 .762-.418 1.466-1.097 1.847l-16.807 9.434a2.247 2.247 0 0 1-2.193 0L6.096 35.28A2.122 2.122 0 0 1 5 33.434V14.567c0-.762.418-1.466 1.097-1.847l16.806-9.434z" clip-rule="evenodd"/><path fill="#0086d4" fill-rule="evenodd" d="M5.304 34.404C5.038 34.048 5 33.71 5 33.255V14.496c0-.758.417-1.458 1.094-1.836l16.748-9.38c.677-.379 1.594-.371 2.271.008 3.343 1.872 13.371 7.459 16.714 9.331.27.152.476.335.66.576L5.304 34.404z" clip-rule="evenodd"/><path fill="#fff" fill-rule="evenodd" d="M24 10c7.727 0 14 6.273 14 14s-6.273 14-14 14-14-6.273-14-14 6.273-14 14-14zm0 7c3.863 0 7 3.136 7 7 0 3.863-3.137 7-7 7s-7-3.137-7-7c0-3.864 3.136-7 7-7z" clip-rule="evenodd"/><path fill="#0075c0" fill-rule="evenodd" d="M42.485 13.205c.516.483.506 1.211.506 1.784 0 3.795-.032 14.589.009 18.384.004.396-.127.813-.323 1.127L23.593 24l18.892-10.795z" clip-rule="evenodd"/><path fill="#fff" fill-rule="evenodd" d="M31 21h2v6h-2zm7 0h2v6h-2z" clip-rule="evenodd"/><path fill="#fff" fill-rule="evenodd" d="M29 23h6v2h-6zm7 0h6v2h-6z" clip-rule="evenodd"/></svg>

<svg xmlns="http://www.w3.org/2000/svg" viewBox="0 0 48 48" width="96px" height="96px"><path fill="#00549d" fill-rule="evenodd" d="M22.903,3.286c0.679-0.381,1.515-0.381,2.193,0 c3.355,1.883,13.451,7.551,16.807,9.434C42.582,13.1,43,13.804,43,14.566c0,3.766,0,15.101,0,18.867 c0,0.762-0.418,1.466-1.097,1.847c-3.355,1.883-13.451,7.551-16.807,9.434c-0.679,0.381-1.515,0.381-2.193,0 c-3.355-1.883-13.451-7.551-16.807-9.434C5.418,34.899,5,34.196,5,33.434c0-3.766,0-15.101,0-18.867 c0-0.762,0.418-1.466,1.097-1.847C9.451,10.837,19.549,5.169,22.903,3.286z" clip-rule="evenodd"/><path fill="#0086d4" fill-rule="evenodd" d="M5.304,34.404C5.038,34.048,5,33.71,5,33.255 c0-3.744,0-15.014,0-18.759c0-0.758,0.417-1.458,1.094-1.836c3.343-1.872,13.405-7.507,16.748-9.38 c0.677-0.379,1.594-0.371,2.271,0.008c3.343,1.872,13.371,7.459,16.714,9.331c0.27,0.152,0.476,0.335,0.66,0.576L5.304,34.404z" clip-rule="evenodd"/><path fill="#fff" fill-rule="evenodd" d="M24,10c7.727,0,14,6.273,14,14s-6.273,14-14,14 s-14-6.273-14-14S16.273,10,24,10z M24,17c3.863,0,7,3.136,7,7c0,3.863-3.137,7-7,7s-7-3.137-7-7C17,20.136,20.136,17,24,17z" clip-rule="evenodd"/><path fill="#0075c0" fill-rule="evenodd" d="M42.485,13.205c0.516,0.483,0.506,1.211,0.506,1.784 c0,3.795-0.032,14.589,0.009,18.384c0.004,0.396-0.127,0.813-0.323,1.127L23.593,24L42.485,13.205z" clip-rule="evenodd"/><path fill="#fff" fill-rule="evenodd" d="M31 21H33V27H31zM38 21H40V27H38z" clip-rule="evenodd"/><path fill="#fff" fill-rule="evenodd" d="M29 23H35V25H29zM36 23H42V25H36z" clip-rule="evenodd"/></svg>
